packages/sights/assets/overlays/cDe2q69X.svg

<svg width="500" height="375" viewBox="0 0 500 375" fill="none" xmlns="http://www.w3.org/2000/svg">
<path d="M492.75 199L333.5 277.5L323.5 282.5C323.5 282.5 347.5 222.5 305.5 209.5C305.5 209.5 247.5 196.5 201.5 274.5C201.5 274.5 189.5 302.5 189.5 333.5V341.12L156.5 349.5H138.13C138.13 349.5 88.5003 347.5 62.5003 325.5C62.5003 325.5 39.5003 309.5 34.5003 257.5C34.5003 257.5 14.5003 206.5 26.5003 179.5L31.5003 167.5C31.5003 167.5 80.5003 113.5 204.5 99.4999C204.5 99.4999 251.5 63.4999 290.5 51.4999C290.5 51.4999 378 29.4999 492.75 51.4999" stroke="white" stroke-miterlimit="10"/>
<path d="M291.72 208.8L307.86 217.66C309.846 218.546 311.716 219.671 313.43 221.01C333.1 236.39 327.43 276.51 300.75 310.63C274.07 344.75 246.5 355.5 216.83 344.54C214.29 343.504 212.095 341.771 210.5 339.54C210.5 339.54 192.79 318.91 191.14 312.72" stroke="white" stroke-miterlimit="10"/>
<path d="M281.5 54.6298C281.5 54.6298 333.5 49.4998 402.5 60.4998C402.5 60.4998 374.5 81.4998 336.5 133.5C336.5 133.5 269.5 132.5 202.5 104.5C202.5 104.5 198.33 103.22 201.42 99.8598" stroke="white" stroke-miterlimit="10"/>
<path d="M31.4999 167.5C31.4999 167.5 29.4999 206.5 48.4999 221.5L52.4999 259.5L49.4999 294.5C49.4999 294.5 35.6099 274 35.4999 266.25" stroke="white" stroke-miterlimit="10"/>
<path d="M48.5 221.5C48.5 221.5 129.5 230.5 149.5 226.5L187.5 219.5L191.14 226.01L150.5 262.5L119.82 271.26H114.75C114.75 271.26 57.5 265.5 52.5 259.5" stroke="white" stroke-miterlimit="10"/>
<path d="M52.5 221.93C52.5 221.93 58.5 240.5 73.5 254.5C73.5 254.5 110.5 264.5 150.5 262.5" stroke="white" stroke-miterlimit="10"/>
<path d="M134.93 227.52C134.93 227.52 228.5 183.52 303.5 164.52L320.5 157.52L324.5 153.52L336.5 133.52" stroke="white" stroke-miterlimit="10"/>
<path d="M402.5 136.13L396.5 141.5L389.5 142.5C389.5 142.5 378.92 137.5 378.21 133.5L381.5 128.5V123.75C386.51 116.954 393.01 111.396 400.5 107.5L407.5 106.5C407.5 106.5 431.5 109.5 443.5 122.5L440.5 130.5L437.75 133.5C425.005 137.237 411.559 137.922 398.5 135.5L381.5 128.5" stroke="white" stroke-miterlimit="10"/>
<path d="M381.5 123.75C381.5 123.75 431.5 127.5 443.5 122.5" stroke="white" stroke-miterlimit="10"/>
<path d="M492.75 57.4998C456 45.4998 424.5 57.4998 424.5 57.4998C399.5 64.4998 354.5 131.5 354.5 131.5L351.5 138.5L379.5 131.5" stroke="white" stroke-miterlimit="10"/>
<path d="M438.14 117.81L492.75 104.79" stroke="white" stroke-miterlimit="10"/>
<path d="M455.94 52.2002C455.94 52.2002 468.88 89.5102 466.69 111" stroke="white" stroke-miterlimit="10"/>
<path d="M452 138.5L458.46 140.5H461.4L464.62 139.5L461.4 136.24C461.4 136.24 465.34 133.92 466.9 135.24L469.55 138.53V141.43C469.55 141.43 455.55 147.43 452 146.43L448.46 145.48L447.76 142.48C447.76 142.48 449.59 138.5 452 138.5Z" stroke="white" stroke-miterlimit="10"/>
</svg>

<svg width="500" height="375" fill="none" xmlns="http://www.w3.org/2000/svg"><path d="M492.75 199 333.5 277.5l-10 5s24-60-18-73c0 0-58-13-104 65 0 0-12 28-12 59v7.62l-33 8.38h-18.37s-49.63-2-75.63-24c0 0-23-16-28-68 0 0-20-51-8-78l5-12s49-54 173-68c0 0 47-36 86-48 0 0 87.5-22 202.25 0" stroke="#fff" stroke-miterlimit="10"/><path d="m291.72 208.8 16.14 8.86a26.75 26.75 0 0 1 5.57 3.35c19.67 15.38 14 55.5-12.68 89.62-26.68 34.12-54.25 44.87-83.92 33.91a14.522 14.522 0 0 1-6.33-5s-17.71-20.63-19.36-26.82M281.5 54.63s52-5.13 121 5.87c0 0-28 21-66 73 0 0-67-1-134-29 0 0-4.17-1.28-1.08-4.64M31.5 167.5s-2 39 17 54l4 38-3 35s-13.89-20.5-14-28.25" stroke="#fff" stroke-miterlimit="10"/><path d="M48.5 221.5s81 9 101 5l38-7 3.64 6.51-40.64 36.49-30.68 8.76h-5.07S57.5 265.5 52.5 259.5" stroke="#fff" stroke-miterlimit="10"/><path d="M52.5 221.93s6 18.57 21 32.57c0 0 37 10 77 8M134.93 227.52s93.57-44 168.57-63l17-7 4-4 12-20M402.5 136.13l-6 5.37-7 1s-10.58-5-11.29-9l3.29-5v-4.75a55.318 55.318 0 0 1 19-16.25l7-1s24 3 36 16l-3 8-2.75 3a84.642 84.642 0 0 1-39.25 2l-17-7" stroke="#fff" stroke-miterlimit="10"/><path d="M381.5 123.75s50 3.75 62-1.25" stroke="#fff" stroke-miterlimit="10"/><path d="M492.75 57.5c-36.75-12-68.25 0-68.25 0-25 7-70 74-70 74l-3 7 28-7M438.14 117.81l54.61-13.02" stroke="#fff" stroke-miterlimit="10"/><path d="M455.94 52.2s12.94 37.31 10.75 58.8M452 138.5l6.46 2h2.94l3.22-1-3.22-3.26s3.94-2.32 5.5-1l2.65 3.29v2.9s-14 6-17.55 5l-3.54-.95-.7-3s1.83-3.98 4.24-3.98Z" stroke="#fff" stroke-miterlimit="10"/></svg>
